X:1
T:Title
%%score { 1 | 2 }
L:1/8
M:3/4
K:Bb
V:1 treble nm="Grand Piano"
V:2 bass 
V:1
 z2 z2[Q:1/4=108] (3FGA | B2 d2 c2 | [DB]4 [DB]>[FA] | [EG]2 [GB]2 G2 |[M:2/4] F4 |[M:1/4] F>F | %6
[M:3/4] c2 c2 d2 | [Ec]2 [DB]2 [Fd]>[Fd] | [=Ec]2 [EG]2 [Ec]2 |[M:2/4] c4 |[M:1/4] (3FGA | %11
[M:3/4] B2 d2 c2 | [DB]4 [DB]>[FA] | [EG]2 [GB]2 G2 |[M:2/4] F4 |[M:1/4] F>F |[M:3/4] c2 c2 d2 | %17
 [Ec]2 [DB]2 (3FGA | %18
 B4 (3FGA[Q:1/4=105][Q:1/4=101][Q:1/4=98][Q:1/4=95][Q:1/4=91][Q:1/4=88][Q:1/4=84] |[M:2/4] [DB]4 |] %20
V:2
 z2 z2 (3F,G,A, | B,2 [F,B,F]2 [F,A,E]2 | [B,,B,]4 [B,,B,]>[D,B,] | [E,B,]2 [E,B,]2 [G,B,E]2 | %4
[M:2/4] [B,D]4 |[M:1/4] [D,B,]>[D,B,] |[M:3/4] [F,A,E]2 [F,A,E]2 [F,A,F]2 | %7
 [B,,B,]2 [B,,B,]2 [B,,B,]>[B,,B,] | [C,B,]2 [C,B,]2 [B,,G,]2 |[M:2/4] [F,A,F]4 |[M:1/4] (3F,G,A, | %11
[M:3/4] B,2 [F,B,F]2 [F,A,E]2 | [B,,B,]4 [B,,B,]>[D,B,] | [E,B,]2 [E,B,]2 [G,B,E]2 | %14
[M:2/4] [B,D]4 |[M:1/4] [D,B,]>[D,B,] |[M:3/4] [F,A,E]2 [F,A,E]2 [F,A,F]2 | %17
 [B,,B,]2 [B,,B,]2 (3F,G,A, | B,4 (3:2:2[F,E]2 [F,E] |[M:2/4] [B,,F,]4 |] %20

